images/security-keyvisual.svg

<svg width="526" height="473" fill="none" xmlns="http://www.w3.org/2000/svg"><ellipse cx="262.667" cy="8.536" rx="8.548" ry="8.536" fill="#000" fill-opacity=".2"/><ellipse rx="8.547" ry="8.538" transform="rotate(-19.974 155.567 -484.79) skewX(.053)" fill="#09D9B9"/><ellipse rx="8.543" ry="8.541" transform="rotate(-39.96 143.045 -100.31) skewX(.081)" fill="#000" fill-opacity=".2"/><ellipse rx="8.543" ry="8.541" transform="rotate(-39.96 847.454 -357.535) skewX(.081)" fill="#09D9B9"/><ellipse rx="8.539" ry="8.545" transform="rotate(-59.965 138.652 33.125) skewX(.071)" fill="#09D9B9"/><ellipse rx="8.539" ry="8.545" transform="rotate(-59.965 582.676 -223.783) skewX(.071)" fill="#000" fill-opacity=".2"/><ellipse cx="10.111" cy="220.153" rx="8.536" ry="8.548" transform="rotate(-80 10.11 220.153)" fill="#000" fill-opacity=".2"/><ellipse rx="8.536" ry="8.548" transform="rotate(-79.986 441.834 -152.54) skewX(.028)" fill="#09D9B9"/><ellipse rx="8.536" ry="8.548" transform="rotate(-100.014 134.702 150.302) skewX(-.028)" fill="#09D9B9"/><ellipse opacity=".2" rx="8.536" ry="8.548" transform="rotate(-100.014 349.951 -106.031) skewX(-.028)" fill="#0E1C36"/><ellipse rx="8.539" ry="8.545" transform="rotate(-120.035 133.558 184.625) skewX(-.071)" fill="#000" fill-opacity=".2"/><ellipse rx="8.539" ry="8.545" transform="rotate(-120.035 281.777 -71.549) skewX(-.071)" fill="#09D9B9"/><ellipse rx="8.543" ry="8.541" transform="rotate(-140.04 132.677 212.612) skewX(-.081)" fill="#09D9B9"/><ellipse rx="8.543" ry="8.541" transform="rotate(-140.04 226.197 -43.49) skewX(-.081)" fill="#000" fill-opacity=".2"/><ellipse rx="8.547" ry="8.538" transform="rotate(-160.026 177.3 -18.86) skewX(-.053)" fill="#09D9B9"/><g filter="url(#filter0_d)"><rect x="147.583" y="68.64" width="234.396" height="351.092" rx="10" fill="#000"/><rect x="147.583" y="68.64" width="234.396" height="351.092" rx="10" fill="url(#paint0_linear)" fill-opacity=".5"/></g><g clip-path="url(#clip0)" fill="#fff"><path d="M238.516 126.171l-3.325-4.799-.998 1.158v3.641h-2.992v-16.796h2.992v9.432h.167l3.657-4.302h3.491l-4.322 4.964 4.571 6.702h-3.241z"/><path d="M246.911 126.335c-1.163 0-2.161-.248-2.992-.744a5.335 5.335 0 0 1-1.995-2.069c-.499-.91-.665-1.903-.665-3.144 0-1.158.249-2.234.665-3.144a4.832 4.832 0 0 1 1.912-2.151 5.762 5.762 0 0 1 2.992-.827c.997 0 1.912.248 2.66.662.831.413 1.413 1.075 1.912 1.903.498.827.665 1.903.665 3.144v1.241h-7.897c.083.827.416 1.572.831 2.068.499.496 1.081.745 1.995.745.665 0 1.247-.166 1.58-.497.332-.331.581-.662.748-1.158l2.659.745c-.166.496-.415 1.075-.831 1.572-.415.496-.914.91-1.662 1.241a8.008 8.008 0 0 1-2.577.413zm-.166-9.597c-.665 0-1.247.248-1.662.662-.416.413-.749.993-.915 1.82h5.071c0-.662-.25-1.241-.665-1.737-.499-.497-1.081-.745-1.829-.745zm9.392 9.928l.249-.579-4.239-11.583h3.076l2.576 7.694h.167l2.576-7.694h3.076l-4.988 13.403c-.166.414-.415.91-.748 1.324-.332.414-.748.827-1.246 1.076-.499.248-1.164.413-1.912.413-.333 0-.582 0-.914-.082-.333-.083-.499-.166-.749-.249l.665-2.316c.748.165 1.247.165 1.58-.083.249-.166.582-.662.831-1.324zm17.871-8.439l-2.743.414c-.166-.579-.416-.993-.748-1.324-.333-.331-.832-.496-1.496-.496-.915 0-1.497.33-1.995.992-.416.662-.665 1.49-.665 2.565 0 1.076.249 1.986.665 2.648.415.662 1.08.993 1.995.993.581 0 1.08-.166 1.413-.497.332-.331.665-.744.748-1.241l2.743.414c-.25 1.075-.832 1.986-1.663 2.73a5.505 5.505 0 0 1-3.325 1.076c-1.163 0-2.078-.249-2.909-.745s-1.413-1.241-1.912-2.151a7.603 7.603 0 0 1-.664-3.144c0-1.158.249-2.234.664-3.144.416-.91 1.081-1.572 1.912-2.068.831-.497 1.746-.745 2.909-.745 1.33 0 2.411.331 3.325 1.076.998.496 1.579 1.489 1.746 2.647zm7.73 7.943v-1.324h-.166c-.167.331-.499.745-.998 1.076-.498.33-1.163.496-1.995.496a4.95 4.95 0 0 1-1.911-.414c-.582-.248-.998-.662-1.413-1.158-.333-.496-.499-1.158-.499-1.903 0-1.158.415-1.986 1.247-2.565.831-.579 1.994-.91 3.491-1.075.332 0 .665-.083.997-.083.333 0 .582-.083.831-.166.167-.082.333-.248.333-.413v-.166c0-.496-.166-.91-.499-1.241a2.048 2.048 0 0 0-1.247-.413c-.582 0-.997.165-1.413.413-.415.248-.582.579-.748.993l-2.743-.414c.25-1.075.831-1.903 1.746-2.482.914-.579 1.995-.827 3.241-.827.749 0 1.497.165 2.245.414.665.248 1.246.662 1.745 1.241.416.579.665 1.406.665 2.316v7.86h-2.909v-.165zm-.166-3.889v-1.572c-.083.083-.25.166-.416.248-.249.083-.499.083-.748.166a2.068 2.068 0 0 1-.665.083c-.665.082-1.247.248-1.579.496-.333.248-.499.662-.499 1.158 0 .414.166.745.416.993.332.248.665.331 1.163.331.665 0 1.164-.165 1.663-.579.498-.414.665-.827.665-1.324zm12.052-7.528l-.915 2.565c-.083-.083-.249-.083-.415-.166-.167-.083-.416-.083-.665-.083-.499 0-.915.083-1.247.331-.333.249-.665.58-.831.91-.167.414-.333.828-.333 1.242v6.618h-2.992v-11.665h2.909v1.654h.166c.167-.579.499-1.075.998-1.323a3.006 3.006 0 0 1 1.662-.497c.333 0 .582 0 .915.083.332.083.581.165.748.331zm10.224 11.417h-2.909v-1.406h-.167c-.166.414-.498.745-.997 1.075-.499.331-1.08.497-1.912.497a4.265 4.265 0 0 1-2.327-.662 5.24 5.24 0 0 1-1.662-2.068c-.416-.911-.582-1.986-.582-3.31s.249-2.399.665-3.309c.415-.91.997-1.572 1.662-1.986.748-.414 1.496-.662 2.327-.662.749 0 1.413.166 1.912.497.499.33.831.661.998 1.075h.083v-5.295h2.909v15.554zm-7.813-5.874c0 1.076.249 1.986.665 2.648.415.662 1.08.993 1.995.993.581 0 1.08-.166 1.496-.497.332-.331.665-.745.831-1.324a6.43 6.43 0 0 0 .249-1.82c0-.993-.166-1.903-.582-2.565-.415-.662-.997-.993-1.911-.993-.915 0-1.497.331-1.995.993-.499.662-.748 1.489-.748 2.565zm-63.421-8.191c-3.823 0-6.899-3.144-6.899-6.95s3.076-6.867 6.899-6.867c3.824 0 6.899 3.061 6.899 6.867.083 3.806-3.075 6.95-6.899 6.95zm0-11.087a4.159 4.159 0 0 0-4.156 4.137c0 2.317 1.912 4.137 4.156 4.137a4.158 4.158 0 0 0 4.156-4.137c.083-2.234-1.828-4.137-4.156-4.137z"/></g><g clip-path="url(#clip1)" fill="#fff" fill-opacity=".5"><path d="M281.985 333.637a1.762 1.762 0 0 0-3.003 1.247c.001.466.187.913.517 1.242a7.913 7.913 0 0 1 1.716 2.563 7.905 7.905 0 0 1 0 6.048 7.913 7.913 0 0 1-1.716 2.563 1.77 1.77 0 0 0-.517 1.242 1.763 1.763 0 0 0 1.758 1.759 1.772 1.772 0 0 0 1.245-.514 11.395 11.395 0 0 0 3.347-8.069 11.388 11.388 0 0 0-3.347-8.069v-.012z"/><path d="M284.785 332.408a13.156 13.156 0 0 1 0 18.608 1.756 1.756 0 0 0 1.916 2.876c.214-.092.408-.226.57-.393a16.664 16.664 0 0 0 0-23.585 1.76 1.76 0 0 0-1.921-.377 1.754 1.754 0 0 0-1.084 1.629c.001.466.188.913.519 1.242z"/></g><rect x="218.684" y="315.966" width="46.879" height="49.213" rx="5" fill="#EEC458"/><rect x="218.684" y="315.966" width="46.879" height="49.213" rx="5" fill="url(#paint1_linear)" fill-opacity=".6"/><mask id="a" maskUnits="userSpaceOnUse" x="218" y="315" width="48" height="51"><rect x="218.684" y="315.966" width="46.879" height="49.213" rx="5" fill="#EEC458"/><rect x="218.684" y="315.966" width="46.879" height="49.213" rx="5" fill="url(#paint2_linear)" fill-opacity=".6"/></mask><g mask="url(#a)"><path stroke="#C4A145" stroke-width="4" d="M198.025 330.449h38.191v49.054h-38.191zm55.474-22.626h38.191v62.318h-38.191z"/><path fill="#C4A145" d="M253.062 330.009h13.283v3.121h-13.283z"/><path fill="#C4A145" d="M253.062 330.009h13.283v3.121h-13.283z"/><path fill="#C4A145" d="M253.062 330.009h13.283v3.121h-13.283z"/><path fill="#C4A145" d="M253.062 330.009h13.283v3.121h-13.283zm0 17.165h13.283v3.121h-13.283z"/><path fill="#C4A145" d="M253.062 347.174h13.283v3.121h-13.283z"/><path fill="#C4A145" d="M253.062 347.174h13.283v3.121h-13.283z"/><path fill="#C4A145" d="M253.062 347.174h13.283v3.121h-13.283zm-39.066-7.022h22.658v3.121h-22.658z"/><path fill="#C4A145" d="M213.996 340.152h22.658v3.121h-22.658z"/><path fill="#C4A145" d="M213.996 340.152h22.658v3.121h-22.658z"/><path fill="#C4A145" d="M213.996 340.152h22.658v3.121h-22.658zm0 12.483h22.658v3.121h-22.658z"/><path fill="#C4A145" d="M213.996 352.635h22.658v3.121h-22.658z"/><path fill="#C4A145" d="M213.996 352.635h22.658v3.121h-22.658z"/><path fill="#C4A145" d="M213.996 352.635h22.658v3.121h-22.658z"/></g><defs><filter id="filter0_d" x="127.583" y="52.64" width="274.396" height="391.092" filterUnits="userSpaceOnUse" color-interpolation-filters="sRGB"><feFlood flood-opacity="0" result="BackgroundImageFix"/><feColorMatrix in="SourceAlpha" values="0 0 0 0 0 0 0 0 0 0 0 0 0 0 0 0 0 0 127 0"/><feOffset dy="4"/><feGaussianBlur stdDeviation="10"/><feColorMatrix values="0 0 0 0 0 0 0 0 0 0 0 0 0 0 0 0 0 0 0.25 0"/><feBlend in2="BackgroundImageFix" result="effect1_dropShadow"/><feBlend in="SourceGraphic" in2="effect1_dropShadow" result="shape"/></filter><linearGradient id="paint0_linear" x1="74.92" y1="370.58" x2="381.362" y2="-102.625" gradientUnits="userSpaceOnUse"><stop/><stop offset="1" stop-color="#fff"/></linearGradient><linearGradient id="paint1_linear" x1="288.482" y1="299.561" x2="222.884" y2="330.7" gradientUnits="userSpaceOnUse"><stop stop-color="#fff"/><stop offset="1" stop-color="#fff" stop-opacity="0"/></linearGradient><linearGradient id="paint2_linear" x1="288.482" y1="299.561" x2="222.884" y2="330.7" gradientUnits="userSpaceOnUse"><stop stop-color="#fff"/><stop offset="1" stop-color="#fff" stop-opacity="0"/></linearGradient><clipPath id="clip0"><path fill="#fff" transform="translate(225.715 98.288)" d="M0 0h78.132v32.798H0z"/></clipPath><clipPath id="clip1"><path fill="#fff" transform="rotate(90 -14.239 306.408)" d="M0 0h42.131v13.324H0z"/></clipPath></defs></svg>

<svg width="526" height="473" viewBox="0 0 526 473" fill="none" xmlns="http://www.w3.org/2000/svg">
<ellipse cx="262.667" cy="8.5361" rx="8.54831" ry="8.5361" fill="black" fill-opacity="0.2"/>
<ellipse rx="8.54688" ry="8.53753" transform="matrix(0.93985 -0.341589 0.342452 0.939535 174.956 23.98)" fill="#09D9B9"/>
<ellipse rx="8.54327" ry="8.54115" transform="matrix(0.766497 -0.642248 0.643327 0.765592 97.8248 68.4479)" fill="black" fill-opacity="0.2"/>
<ellipse rx="8.54327" ry="8.54115" transform="matrix(0.766497 -0.642248 0.643327 0.765592 427.509 460.79)" fill="#09D9B9"/>
<ellipse rx="8.53915" ry="8.54526" transform="matrix(0.500536 -0.865716 0.866335 0.499464 40.5749 136.578)" fill="#09D9B9"/>
<ellipse rx="8.53915" ry="8.54526" transform="matrix(0.500536 -0.865716 0.866335 0.499464 484.758 392.661)" fill="black" fill-opacity="0.2"/>
<ellipse cx="10.1108" cy="220.153" rx="8.53647" ry="8.54794" transform="rotate(-80 10.1108 220.153)" fill="black" fill-opacity="0.2"/>
<ellipse rx="8.53647" ry="8.54794" transform="matrix(0.173889 -0.984765 0.98485 0.173408 515.22 309.087)" fill="#09D9B9"/>
<ellipse rx="8.53647" ry="8.54794" transform="matrix(-0.173889 -0.984765 0.98485 -0.173408 10.1131 309.087)" fill="#09D9B9"/>
<ellipse opacity="0.2" rx="8.53647" ry="8.54794" transform="matrix(-0.173889 -0.984765 0.98485 -0.173408 515.22 220.151)" fill="#0E1C36"/>
<ellipse rx="8.53915" ry="8.54526" transform="matrix(-0.500536 -0.865716 0.866335 -0.499464 40.5747 392.66)" fill="black" fill-opacity="0.2"/>
<ellipse rx="8.53915" ry="8.54526" transform="matrix(-0.500536 -0.865716 0.866335 -0.499464 484.758 136.578)" fill="#09D9B9"/>
<ellipse rx="8.54327" ry="8.54115" transform="matrix(-0.766497 -0.642248 0.643327 -0.765592 97.8241 460.79)" fill="#09D9B9"/>
<ellipse rx="8.54327" ry="8.54115" transform="matrix(-0.766497 -0.642248 0.643327 -0.765592 427.509 68.4482)" fill="black" fill-opacity="0.2"/>
<ellipse rx="8.54688" ry="8.53753" transform="matrix(-0.93985 -0.341589 0.342452 -0.939535 350.377 23.9796)" fill="#09D9B9"/>
<g filter="url(#filter0_d)">
<rect x="147.583" y="68.6404" width="234.396" height="351.092" rx="10" fill="black"/>
<rect x="147.583" y="68.6404" width="234.396" height="351.092" rx="10" fill="url(#paint0_linear)" fill-opacity="0.5"/>
</g>
<g clip-path="url(#clip0)">
<path d="M238.516 126.171L235.191 121.372L234.193 122.53V126.171H231.201V109.375H234.193V118.807H234.36L238.017 114.505H241.508L237.186 119.469L241.757 126.171H238.516Z" fill="white"/>
<path d="M246.911 126.335C245.748 126.335 244.75 126.087 243.919 125.591C243.088 125.094 242.423 124.432 241.924 123.522C241.425 122.612 241.259 121.619 241.259 120.378C241.259 119.22 241.508 118.144 241.924 117.234C242.34 116.324 243.005 115.58 243.836 115.083C244.667 114.587 245.664 114.256 246.828 114.256C247.825 114.256 248.74 114.504 249.488 114.918C250.319 115.331 250.901 115.993 251.4 116.821C251.898 117.648 252.065 118.724 252.065 119.965V121.206H244.168C244.251 122.033 244.584 122.778 244.999 123.274C245.498 123.77 246.08 124.019 246.994 124.019C247.659 124.019 248.241 123.853 248.574 123.522C248.906 123.191 249.155 122.86 249.322 122.364L251.981 123.109C251.815 123.605 251.566 124.184 251.15 124.681C250.735 125.177 250.236 125.591 249.488 125.922C248.74 126.17 247.909 126.335 246.911 126.335ZM246.745 116.738C246.08 116.738 245.498 116.986 245.083 117.4C244.667 117.813 244.334 118.393 244.168 119.22H249.239C249.239 118.558 248.989 117.979 248.574 117.483C248.075 116.986 247.493 116.738 246.745 116.738Z" fill="white"/>
<path d="M256.137 126.666L256.386 126.087L252.147 114.504H255.223L257.799 122.198H257.966L260.542 114.504H263.618L258.63 127.907C258.464 128.321 258.215 128.817 257.882 129.231C257.55 129.645 257.134 130.058 256.636 130.307C256.137 130.555 255.472 130.72 254.724 130.72C254.391 130.72 254.142 130.72 253.81 130.638C253.477 130.555 253.311 130.472 253.061 130.389L253.726 128.073C254.474 128.238 254.973 128.238 255.306 127.99C255.555 127.824 255.888 127.328 256.137 126.666Z" fill="white"/>
<path d="M274.008 118.227L271.265 118.641C271.099 118.062 270.849 117.648 270.517 117.317C270.184 116.986 269.685 116.821 269.021 116.821C268.106 116.821 267.524 117.151 267.026 117.813C266.61 118.475 266.361 119.303 266.361 120.378C266.361 121.454 266.61 122.364 267.026 123.026C267.441 123.688 268.106 124.019 269.021 124.019C269.602 124.019 270.101 123.853 270.434 123.522C270.766 123.191 271.099 122.778 271.182 122.281L273.925 122.695C273.675 123.77 273.093 124.681 272.262 125.425C271.348 126.087 270.267 126.501 268.937 126.501C267.774 126.501 266.859 126.252 266.028 125.756C265.197 125.26 264.615 124.515 264.116 123.605C263.701 122.695 263.452 121.619 263.452 120.461C263.452 119.303 263.701 118.227 264.116 117.317C264.532 116.407 265.197 115.745 266.028 115.249C266.859 114.752 267.774 114.504 268.937 114.504C270.267 114.504 271.348 114.835 272.262 115.58C273.26 116.076 273.841 117.069 274.008 118.227Z" fill="white"/>
<path d="M281.738 126.17V124.846H281.572C281.405 125.177 281.073 125.591 280.574 125.922C280.076 126.252 279.411 126.418 278.579 126.418C277.914 126.418 277.25 126.252 276.668 126.004C276.086 125.756 275.67 125.342 275.255 124.846C274.922 124.35 274.756 123.688 274.756 122.943C274.756 121.785 275.171 120.957 276.003 120.378C276.834 119.799 277.997 119.468 279.494 119.303C279.826 119.303 280.159 119.22 280.491 119.22C280.824 119.22 281.073 119.137 281.322 119.054C281.489 118.972 281.655 118.806 281.655 118.641V118.475C281.655 117.979 281.489 117.565 281.156 117.234C280.824 116.986 280.408 116.821 279.909 116.821C279.327 116.821 278.912 116.986 278.496 117.234C278.081 117.482 277.914 117.813 277.748 118.227L275.005 117.813C275.255 116.738 275.836 115.91 276.751 115.331C277.665 114.752 278.746 114.504 279.992 114.504C280.741 114.504 281.489 114.669 282.237 114.918C282.902 115.166 283.483 115.58 283.982 116.159C284.398 116.738 284.647 117.565 284.647 118.475V126.335H281.738V126.17ZM281.572 122.281V120.709C281.489 120.792 281.322 120.875 281.156 120.957C280.907 121.04 280.657 121.04 280.408 121.123C280.159 121.206 279.909 121.206 279.743 121.206C279.078 121.288 278.496 121.454 278.164 121.702C277.831 121.95 277.665 122.364 277.665 122.86C277.665 123.274 277.831 123.605 278.081 123.853C278.413 124.101 278.746 124.184 279.244 124.184C279.909 124.184 280.408 124.019 280.907 123.605C281.405 123.191 281.572 122.778 281.572 122.281Z" fill="white"/>
<path d="M293.624 114.753L292.709 117.318C292.626 117.235 292.46 117.235 292.294 117.152C292.127 117.069 291.878 117.069 291.629 117.069C291.13 117.069 290.714 117.152 290.382 117.4C290.049 117.649 289.717 117.98 289.551 118.31C289.384 118.724 289.218 119.138 289.218 119.552V126.17H286.226V114.505H289.135V116.159H289.301C289.468 115.58 289.8 115.084 290.299 114.836C290.798 114.505 291.379 114.339 291.961 114.339C292.294 114.339 292.543 114.339 292.876 114.422C293.208 114.505 293.457 114.587 293.624 114.753Z" fill="white"/>
<path d="M303.848 126.17H300.939V124.764H300.772C300.606 125.178 300.274 125.509 299.775 125.839C299.276 126.17 298.695 126.336 297.863 126.336C296.949 126.336 296.201 126.088 295.536 125.674C294.871 125.178 294.289 124.516 293.874 123.606C293.458 122.695 293.292 121.62 293.292 120.296C293.292 118.972 293.541 117.897 293.957 116.987C294.372 116.077 294.954 115.415 295.619 115.001C296.367 114.587 297.115 114.339 297.946 114.339C298.695 114.339 299.359 114.505 299.858 114.836C300.357 115.166 300.689 115.497 300.856 115.911H300.939V110.616H303.848V126.17ZM296.035 120.296C296.035 121.372 296.284 122.282 296.7 122.944C297.115 123.606 297.78 123.937 298.695 123.937C299.276 123.937 299.775 123.771 300.191 123.44C300.523 123.109 300.856 122.695 301.022 122.116C301.188 121.537 301.271 120.958 301.271 120.296C301.271 119.303 301.105 118.393 300.689 117.731C300.274 117.069 299.692 116.738 298.778 116.738C297.863 116.738 297.281 117.069 296.783 117.731C296.284 118.393 296.035 119.22 296.035 120.296Z" fill="white"/>
<path d="M232.614 112.105C228.791 112.105 225.715 108.961 225.715 105.155C225.715 101.349 228.791 98.2881 232.614 98.2881C236.438 98.2881 239.513 101.349 239.513 105.155C239.596 108.961 236.438 112.105 232.614 112.105ZM232.614 101.018C230.287 101.018 228.458 102.921 228.458 105.155C228.458 107.472 230.37 109.292 232.614 109.292C234.942 109.292 236.77 107.389 236.77 105.155C236.853 102.921 234.942 101.018 232.614 101.018Z" fill="white"/>
</g>
<g clip-path="url(#clip1)">
<path d="M281.985 333.637C281.654 333.308 281.206 333.123 280.74 333.124C280.273 333.125 279.825 333.31 279.496 333.641C279.166 333.971 278.981 334.418 278.982 334.884C278.983 335.35 279.169 335.797 279.499 336.126C280.234 336.86 280.817 337.731 281.215 338.689C281.612 339.648 281.817 340.675 281.817 341.713C281.817 342.751 281.612 343.778 281.215 344.737C280.817 345.695 280.234 346.566 279.499 347.3C279.336 347.463 279.206 347.656 279.117 347.869C279.028 348.083 278.983 348.311 278.982 348.542C278.982 348.772 279.028 349.001 279.116 349.214C279.204 349.428 279.333 349.621 279.497 349.785C279.66 349.948 279.854 350.078 280.067 350.166C280.28 350.255 280.509 350.3 280.74 350.301C280.971 350.301 281.2 350.256 281.414 350.168C281.627 350.08 281.821 349.95 281.985 349.787C283.046 348.728 283.888 347.47 284.462 346.085C285.037 344.701 285.332 343.217 285.332 341.718C285.332 340.22 285.037 338.736 284.462 337.351C283.888 335.967 283.046 334.709 281.985 333.649L281.985 333.637Z" fill="white" fill-opacity="0.5"/>
<path d="M284.785 332.408C287.254 334.877 288.641 338.223 288.641 341.712C288.641 345.201 287.254 348.548 284.785 351.016C284.617 351.178 284.484 351.372 284.391 351.586C284.299 351.8 284.251 352.031 284.249 352.264C284.247 352.497 284.291 352.728 284.38 352.944C284.468 353.159 284.599 353.355 284.764 353.52C284.929 353.685 285.125 353.815 285.341 353.904C285.557 353.992 285.789 354.036 286.022 354.034C286.255 354.032 286.486 353.984 286.701 353.892C286.915 353.8 287.109 353.666 287.271 353.499C290.403 350.371 292.163 346.129 292.163 341.706C292.163 337.283 290.403 333.041 287.271 329.914C286.94 329.585 286.491 329.4 286.024 329.402C285.793 329.402 285.564 329.448 285.35 329.537C285.136 329.626 284.942 329.756 284.779 329.92C284.616 330.084 284.487 330.278 284.399 330.492C284.311 330.706 284.266 330.934 284.266 331.166C284.267 331.632 284.454 332.079 284.785 332.408V332.408Z" fill="white" fill-opacity="0.5"/>
</g>
<rect x="218.684" y="315.966" width="46.8793" height="49.2129" rx="5" fill="#EEC458"/>
<rect x="218.684" y="315.966" width="46.8793" height="49.2129" rx="5" fill="url(#paint1_linear)" fill-opacity="0.6"/>
<mask id="mask0" mask-type="alpha" maskUnits="userSpaceOnUse" x="218" y="315" width="48" height="51">
<rect x="218.684" y="315.966" width="46.8793" height="49.2129" rx="5" fill="#EEC458"/>
<rect x="218.684" y="315.966" width="46.8793" height="49.2129" rx="5" fill="url(#paint2_linear)" fill-opacity="0.6"/>
</mask>
<g mask="url(#mask0)">
<rect x="198.025" y="330.449" width="38.1914" height="49.054" stroke="#C4A145" stroke-width="4"/>
<rect x="253.499" y="307.823" width="38.1914" height="62.3175" stroke="#C4A145" stroke-width="4"/>
<rect x="253.062" y="330.009" width="13.2825" height="3.12082" fill="#C4A145"/>
<rect x="253.062" y="330.009" width="13.2825" height="3.12082" fill="#C4A145"/>
<rect x="253.062" y="330.009" width="13.2825" height="3.12082" fill="#C4A145"/>
<rect x="253.062" y="330.009" width="13.2825" height="3.12082" fill="#C4A145"/>
<rect x="253.062" y="347.174" width="13.2825" height="3.12082" fill="#C4A145"/>
<rect x="253.062" y="347.174" width="13.2825" height="3.12082" fill="#C4A145"/>
<rect x="253.062" y="347.174" width="13.2825" height="3.12082" fill="#C4A145"/>
<rect x="253.062" y="347.174" width="13.2825" height="3.12082" fill="#C4A145"/>
<rect x="213.996" y="340.152" width="22.6583" height="3.12082" fill="#C4A145"/>
<rect x="213.996" y="340.152" width="22.6583" height="3.12082" fill="#C4A145"/>
<rect x="213.996" y="340.152" width="22.6583" height="3.12082" fill="#C4A145"/>
<rect x="213.996" y="340.152" width="22.6583" height="3.12082" fill="#C4A145"/>
<rect x="213.996" y="352.635" width="22.6583" height="3.12082" fill="#C4A145"/>
<rect x="213.996" y="352.635" width="22.6583" height="3.12082" fill="#C4A145"/>
<rect x="213.996" y="352.635" width="22.6583" height="3.12082" fill="#C4A145"/>
<rect x="213.996" y="352.635" width="22.6583" height="3.12082" fill="#C4A145"/>
</g>
<defs>
<filter id="filter0_d" x="127.583" y="52.6404" width="274.396" height="391.092" filterUnits="userSpaceOnUse" color-interpolation-filters="sRGB">
<feFlood flood-opacity="0" result="BackgroundImageFix"/>
<feColorMatrix in="SourceAlpha" type="matrix" values="0 0 0 0 0 0 0 0 0 0 0 0 0 0 0 0 0 0 127 0"/>
<feOffset dy="4"/>
<feGaussianBlur stdDeviation="10"/>
<feColorMatrix type="matrix" values="0 0 0 0 0 0 0 0 0 0 0 0 0 0 0 0 0 0 0.25 0"/>
<feBlend mode="normal" in2="BackgroundImageFix" result="effect1_dropShadow"/>
<feBlend mode="normal" in="SourceGraphic" in2="effect1_dropShadow" result="shape"/>
</filter>
<linearGradient id="paint0_linear" x1="74.9204" y1="370.58" x2="381.362" y2="-102.625" gradientUnits="userSpaceOnUse">
<stop/>
<stop offset="1" stop-color="white"/>
</linearGradient>
<linearGradient id="paint1_linear" x1="288.482" y1="299.561" x2="222.884" y2="330.7" gradientUnits="userSpaceOnUse">
<stop stop-color="white"/>
<stop offset="1" stop-color="white" stop-opacity="0"/>
</linearGradient>
<linearGradient id="paint2_linear" x1="288.482" y1="299.561" x2="222.884" y2="330.7" gradientUnits="userSpaceOnUse">
<stop stop-color="white"/>
<stop offset="1" stop-color="white" stop-opacity="0"/>
</linearGradient>
<clipPath id="clip0">
<rect width="78.1321" height="32.7984" fill="white" transform="translate(225.715 98.2881)"/>
</clipPath>
<clipPath id="clip1">
<rect width="42.1311" height="13.3236" fill="white" transform="translate(292.169 320.647) rotate(90)"/>
</clipPath>
</defs>
</svg>
